!!!!SEGMENT: pl-wn--mus-iii-86-056_zelenski-wladyslaw--salve-regina.krn
!!!cenid: 18xx:3787
!!!COM: Żeleński, Władysław
!!!COM-rismID: pe41024455
!!!CDT: 1837/07/06-1921/01/23
!!!CNT: Polish
!!!OTL: Salve Regina
!!!PDT:
!!!AGN:
!!!SMS-siglum: PL-Wn
!!!SMS-shelfmark: Mus.III.86.056
!!!SMS-shelfwork: W
!!!SMS-variant:
!!!SMS-altvar:
!!!NIFC-rismSourceID:
!!!NIFC-islandoraID:
!!!URL-pdf-islandora:
!!!URL-scan: https://polona.pl/item/salve-regina-na-chor-mezki,NDU5Mzc0NTA/0/#info:metadata @EN{Scan on Polona} @PL{Skany w portalu Polona}
!!!ONB-nifc:
!!!AIN: 1 bass 1 tenor
!!!key: E-
**kern	**text	**dynam	**kern	**text	**dynam
*part2	*part2	*part2	*part1	*part1	*part1
*staff2	*staff2	*	*staff1	*staff1	*
*I"Bassy.	*	*	*I"Tenory.	*	*
*I'B	*	*	*I'T	*	*
*Ibass	*	*	*Itenor	*	*
*ICvox	*	*	*ICvox	*	*
*clefF4	*	*	*clefG2	*	*
*k[b-e-a-]	*	*	*k[b-e-a-]	*	*
*E-:	*	*	*E-:	*	*
*M4/4	*	*	*M4/4	*	*
*met(c)	*	*	*met(c)	*	*
=1	=1	=1	=1	=1	=1
*^	*	*	*^	*	*
!LO:N:vis=2	!LO:N:vis=2	!	!	!LO:TX:a:t=Molto sostenuto.	!	!	!LO:DY:b:rj
1rD	1rBB	.	.	2b-/	1r	Sal-	p
.	.	.	.	4.cc/	.	-ve	.
.	.	.	.	(>8b-/	.	Re-	.
=2	=2	=2	=2	=2	=2	=2	=2
!LO:N:vis=2	!LO:N:vis=2	!	!	!	!	!	!
1rD	1rBB	.	.	4.g/	1rf	-gi-	.
.	.	.	.	8f/	.	.	.
!	!	!	!	!	!	!	!LO:HP:a
.	.	.	.	8e-/L	.	.	<
.	.	.	.	8d/	.	.	.
.	.	.	.	8e-/	.	.	.
.	.	.	.	8f/J)	.	.	[[
=3	=3	=3	=3	=3	=3	=3	=3
!	!	!	!	!	!	!	!LO:DY:b
2E-/	2C\	Sal-	.	2g\	1g	-na	pp
4E-/	4C\	-ve	.	4g\	.	.	.
4r	4ryy	.	.	4r	.	.	.
=4	=4	=4	=4	=4	=4	=4	=4
!LO:N:vis=2	!LO:N:vis=2	!	!	!	!	!	!
1rD	1rBB	.	.	4.g/	1r	Ma-	.
.	.	.	.	8f/	.	.	.
.	.	.	.	8e-/	.	-ter	.
.	.	.	.	8g/	.	mi-	.
.	.	.	.	8a-/	.	-se-	.
.	.	.	.	8b-/	.	-ri-	.
=5	=5	=5	=5	=5	=5	=5	=5
*	*	*above	*	*	*	*above	*
2A-/	2F\	Sal-	.	4.cc/	2cc\	-cor-	.
.	.	.	.	8cc/	.	-di-	.
4A-/	4F\	-ve	.	4cc\	2cc/	-ae	.
4r	4ryy	.	.	4r	.	.	.
!!LO:LB:g=original
=6	=6	=6	=6	=6	=6	=6	=6
*	*	*below	*	*	*	*below	*
!LO:N:vis=2	!LO:N:vis=2	!	!	!	!LO:N:vis=2	!	!
1rD	1rBB	.	.	4cc/	1r	vi-	.
.	.	.	.	8cc/	.	.	.
.	.	.	.	8cc/	.	-ta	.
.	.	.	.	4.ff/	.	dul-	.
.	.	.	.	8ee-/	.	-ce-	.
=7	=7	=7	=7	=7	=7	=7	=7
!LO:N:vis=2	!LO:N:vis=2	!	!	!	!LO:N:vis=2	!	!
1rD	1rBB	.	.	4.dd/	1rf	-do	.
.	.	.	.	8cc/	.	et	.
.	.	.	.	4b-/	.	spes	.
.	.	.	.	8cc/L	.	.	.
.	.	.	.	8dd/J	.	.	.
=8	=8	=8	=8	=8	=8	=8	=8
!LO:N:vis=2	!LO:N:vis=2	!	!	!	!LO:N:vis=2	!	!
1rD	1rBB	.	.	2ee-/	1rf	no-	.
.	.	.	.	4b-/	.	.	.
.	.	.	.	4g/	.	-stra	.
=9	=9	=9	=9	=9	=9	=9	=9
!	!	!	!LO:DY:a	!	!	!	!LO:HP:b
2E-/	4.AA-\	.	pp	2cc/	2a-\	sal-	>
.	8C\	.	.	.	.	.	.
4E-/	4E-\	.	.	4b-/	4g\	-ve	]
4F/	4D\	.	.	4b-/	4b-\	ad	.
=10	=10	=10	=10	=10	=10	=10	=10
!	!	!	!LO:DY:a:rj	!	!	!	!
!	!	!	!LO:HP:a	!	!	!	!LO:DY:a:rj
4G/	4C\	.	sf >	4.ee-/	4b-\	te	sf
4F#X/	4C\	.	.	.	4an\	.	.
.	.	.	]	8ee-/	.	cla-	.
4G/	4GG\	.	.	4dd/	4b-\	-ma-	.
4G/	4G\	.	.	4b-/	4b-\	-mus	.
!!LO:LB:g=original
=11	=11	=11	=11	=11	=11	=11	=11
4.G/	4F\	.	.	4.cc/	4.b-\	e-	.
.	8En\	.	.	.	.	.	.
!	!	!	!	!	!	!	!LO:HP:a
8G/	8E\	.	.	8cc/	8b-\	-xu-	<
8F/	8F\	.	.	8cc/	8a-\	-les	.
8F/	8E-X\	.	.	8cc/	8a-\	fi-	.
8F/	8D\	.	.	8dd/	8a-\	-li-	.
8F/	8C\	.	.	8ee-/	8a-\	-i	[[
=12	=12	=12	=12	=12	=12	=12	=12
!	!	!	!	!	!	!	!LO:HP:a
4F/	4BB-\	.	.	4ee-/	4a-X\	E-	<
8F/	8BB-\	.	.	8dd/	8a-\	-vae	.
8B-/	8BB-\	.	.	8dd/	8a-\	ad	.
4B-/	4BB-\	.	.	4dd/	4a-\	te	[
8B-/	8C\	.	.	8ee-/	8a-\	sus-	.
8B-/	8D\	.	.	8ff/	8a-\	-pi-	.
=13	=13	=13	=13	=13	=13	=13	=13
4B-/	4E-\	.	.	4gg/	4g\	-ra-	.
8F/	8D\	.	.	8ff/	8an\	-mus	.
8F/	8D\	.	.	8ff/	8bn\	ge-	.
4G/	4C\	.	.	4ee-/	4cc\	-men-	.
8A-/	8A-\	.	.	8cc/	8cc\	-tes	.
8A-/	8A-\	.	.	8cc/	8cc\	ed	.
=14	=14	=14	=14	=14	=14	=14	=14
*	*	*above	*	*	*	*	*
!	!	!	!	!	!	!	!LO:HP:a
2.A-/	4D\	flen-	.	4.ff/	4cc\	flen-	>
.	4GG\	.	.	.	4bn\	.	.
.	.	.	.	8ee-/	.	.	.
.	4GG\	.	.	4dd/	4b\	-tes	]
4G/	4r	.	.	4r	4ryy	.	.
=15	=15	=15	=15	=15	=15	=15	=15
!	!	!	!	!	!LO:N:vis=1	!	!
4G/	4r	-tes	.	8r	2rf	.	.
.	.	.	.	8g/	.	In	.
*	*	*below	*	*	*	*	*
4G/	4F\	In	.	8an/L	.	hac	.
.	.	.	.	8bn/J	.	.	.
4G/	4E-\	la-	.	8cc/L	8r	la-	.
*	*	*	*	*	*	*^	*
*	*	*	*	*	*	*above	*	*
.	.	.	.	8b/	8g\	.	In	.
4F/	4D\	-cry-	.	8cc/J	8an\	.	la-	.
.	.	.	.	8dd/	8bn\	-cry-	-cry-	.
!!LO:LB:g=original
=16	=16	=16	=16	=16	=16	=16	=16	=16
!	!	!	!	!	!	!	!	!LO:HP:b
8E-/L	4.C\	-ma-	.	4.ee-/	4.cc\	-ma-	-ma-	>
8B-/	.	.	.	.	.	.	.	.
8An/J	.	.	.	.	.	.	.	.
8G/	8C\	-rum	.	8ee-/	8b-X\	-rum	-rum	]
*	*	*	*	*	*	*below	*	*
!	!	!	!LO:DY:a	!	!	!	!	!
4G/	2D\	.	pp	2dd/	2an\	val-	.	.
4F#X/	.	.	.	.	.	.	.	.
*	*	*	*	*	*	*v	*v	*
=17	=17	=17	=17	=17	=17	=17	=17
2G/	2GG\	.	.	2dd/	2b-\	-le	.
!	!	!	!LO:DY:a	!	!	!	!
4G/	4GG\	.	f	4g/	4g\	E-	.
4G/	4GG\	.	.	4g/	4g\	-ja	.
=18	=18	=18	=18	=18	=18	=18	=18
4.BB-/	4.BB-\	.	.	4.b-/	4.b-\	er-	.
8AA-/	8AA-\	.	.	8a-/	8a-\	-go	.
8GG/	8GG\	.	.	8g/	8g\	ad-	.
8BB-/	8BB-\	.	.	8b-/	8b-\	-vo-	.
8C/	8C\	.	.	8cc/	8cc\	-ca-	.
8D-X/	8D-\	.	.	8dd-X/	8dd-\	-ta	.
=19	=19	=19	=19	=19	=19	=19	=19
2F/	2F\	.	.	2ff/	2ff\	nos-	.
4BB-/	4BB-\	.	.	4b-/	4b-\	-tra	.
!	!	!	!	!	!	!	!LO:DY:a:rj
8F/	8BB-\	.	.	8dd-X/	8b-\	il-	p
8F/	8BB-\	.	.	8dd-/	8b-\	-los	.
=20	=20	=20	=20	=20	=20	=20	=20
4En/	4C\	.	.	4cc/	4g\	tu-	.
4B-/	4C\	.	.	4cc/	4cc\	-os	.
4A-/	4C\	.	.	4ff/	4cc\	mi-	.
8G/	8C\	.	.	8ee-/	8cc\	-se-	.
8F/	8C\	.	.	8dd-X/	8a-\	-ri-	.
!!LO:LB:g=original
=21	=21	=21	=21	=21	=21	=21	=21
!	!	!	!	!	!	!	!LO:HP:a:t=poco cresc.
4En/	4C\	.	.	4cc/	4g\	-cor-	<
4B-/	4C\	.	.	4cc/	4cc\	-des	.
8A-/	8C\	.	.	8ff/	8cc\	o-	.
8A-/	8C\	.	.	8ff/	8cc\	-cu-	.
8G/	8C\	.	.	8ee-/	8cc\	-los	.
8F/	8C\	.	.	8dd-X/	8a-\	ad	.
=22	=22	=22	=22	=22	=22	=22	=22
!	!	!	!	!	!	!	!LO:HP:a
4En/	4C\	.	.	(>4cc/	[<4g\	nos	<
8F/	8D-X\	.	.	8b-/)	8g\]	.	.
!	!	!	!	!	!	!	!LO:HP:a
8F/	8C\	.	.	8cc/	8g\	con-	[>
2F/	4BB-\	.	.	(>4dd-X/	2g\	-ver-	.
.	4D-\	.	.	4g/)	.	.	]]
=23	=23	=23	=23	=23	=23	=23	=23
2En/	2C\	.	.	2g/	2g\	-te	.
!	!	!	!LO:DY:a	!	!	!	!
4C/	4C\	.	f	4cc/	4cc\	E	.
4C/	4C\	.	.	4cc/	4cc\	ja	.
=24	=24	=24	=24	=24	=24	=24	=24
4.E-/	4.E-\	.	.	4.ee-/	4.ee-\	er-	.
8D-X/	8D-\	.	.	8dd-X/	8dd-\	-go	.
8C/	8C\	.	.	8cc/	8cc\	ad-	.
8E-/	8E-\	.	.	8ee-/	8ee-\	-vo-	.
8F/	8F\	.	.	8ff/	8ff\	-ca-	.
8G-X/	8G-\	.	.	8gg-X/	8gg-\	-ta	.
=25	=25	=25	=25	=25	=25	=25	=25
2BB-/	2BB-\	.	.	2b-/	2b-\	nos-	.
4AA-/	4AA-\	.	.	4a-/	4a-\	-tra	.
!	!	!	!	!	!	!	!LO:DY:a:rj
8G-X/	8AA-\	.	.	8cc/	8a-\	il-	p
8G-/	8AA-\	.	.	8cc/	8a-\	-los	.
!!LO:PB:g=original
=26	=26	=26	=26	=26	=26	=26	=26
4F/	4D\	.	.	4ff/	4a-\	tu-	.
4F/	4D\	.	.	4ff/	8a-\L	-os	.
.	.	.	.	.	8b-\J	.	.
8Gn/L	4C\	.	.	4ff/	4cc\	-mi-	.
8F/J	.	.	.	.	.	.	.
8G/	8C\	.	.	8ee-/	8cc\	-se-	.
8An/	8C\	.	.	8ee-/	8cc\	-ri-	.
=27	=27	=27	=27	=27	=27	=27	=27
4B-/	4BB-\	.	.	4dd-X/	4dd-\	-cor-	.
4B-/	4E-\	.	.	4gg-X/	4dd-\	-des	.
8.A-/	8.AA-\	.	.	8.ff/	8.cc\	o-	.
16A-/	16A-\	.	.	16ee-/	16cc\	-cu-	.
8A-/	8A-\	.	.	8ee-/	8cc\	-los	.
8A-/	8G-X\	.	.	8ee-/	8cc\	ad	.
=28	=28	=28	=28	=28	=28	=28	=28
!	!	!	!	!	!	!	!LO:HP:a:t=cresc. sempre
4.A-/	4.F\	.	.	4.aa-/	4cc\	nos	<
.	.	.	.	.	8dd\	.	.
8A-/	8F\	.	.	8aa-/	8dd\	con-	.
4B-/	4E-\	.	.	4gg-X/	4ee-\	-ver-	.
8B-/	8D-X\	.	.	8ff/	8b-\	-ta	.
8B-/	8D-\	.	.	8ff/	8b-\	ad	.
=29	=29	=29	=29	=29	=29	=29	=29
!	!	!	!	!	!	!	!LO:HP:a
4B-/	4.C-X\	.	.	4ee-/	4b-\	nos	>
4E-/	.	.	.	4ee-/	8a-\L	con-	.
.	8C-\	.	.	.	8g-X\J	.	.
2A-/	4C-\	.	.	4ee-/	4.f\	-ver-	.
.	4AA-\	.	.	8dd-X/L	.	.	.
.	.	.	.	8cc-X/J	8e-\	.	.
=30	=30	=30	=30	=30	=30	=30	=30
4F/	4BB-\	Et	.	4b-/	4d\	-te	]
!	!	!	!LO:DY:a:rj	!	!	!	!
4r	4BB-\	Je	p	4r	4ryy	.	.
2r	4BB-\	sum	.	2r	2ryy	.	.
.	4BB-\	.	.	.	.	.	.
!!LO:LB:g=original
=31	=31	=31	=31	=31	=31	=31	=31
4r	2.BB-\	be-	.	4r	4ryy	.	.
!	!	!	!	!	!	!	!LO:DY:a:rj
8G-X/	.	.	.	8ee-/	8an\	Be-	pp
8G-/	.	.	.	8ee-/	8a\	-ne-	.
4F/	.	.	.	4dd/	4a\	-dic-	.
4E-/	4BB-\	-ne-	.	4cc/	4a\	-tum	.
=32	=32	=32	=32	=32	=32	=32	=32
4D/	4BB-\	-dic-	.	4b-/	4f\	fru-	.
4D/	4BB-\	-tum	.	4b-/	4f\	-ctum	.
2r	4BB-\	fru-	.	2ree	2ra	.	.
.	4BB-\	-ctum	.	.	.	.	.
=33	=33	=33	=33	=33	=33	=33	=33
4r	2.BB-\	ven-	.	4r	4ryy	.	.
(>4A-X/	.	.	.	(>4ff/	[<4b-\	fruc-	.
8G/)	.	.	.	8ee-/)	8b-\]	.	.
8G/	.	.	.	8ee-/	8b-\	-tum	.
8F/	4BB-\	-tris	.	8dd/	8b-X\	ven-	.
8F/	.	.	.	8dd/	8b-\	-tris	.
=34	=34	=34	=34	=34	=34	=34	=34
4En/	4BB-\	.	.	4cc/	4g\	tu-	.
4E/	4BB-\	.	.	4cc/	4g\	-i	.
2rD	4BB-\	no-	.	2r	2ryy	.	.
.	8BB-\	-bis	.	.	.	.	.
.	8BB-\	post	.	.	.	.	.
=35	=35	=35	=35	=35	=35	=35	=35
!	!	!	!	!	!	!	!LO:HP:a
4r	2.BB-\	hoc	.	4r	4ryy	.	<
4B-/	.	.	.	4gg/	4dd-X\	no-	.
4A-/	.	.	.	4ff/	4dd-\	-bis	.
4G/	4BB-\	e-	.	4een/	4cc\	post	[[
!!LO:LB:g=original
=36	=36	=36	=36	=36	=36	=36	=36
4F/	2BB-\	-xi-	.	4.aa-/	4cc\	hoc	.
4En/	.	.	.	.	4dd-X 4b-\	ex-	.
.	.	.	.	8gg/	.	.	.
4A-/	4BB-\	-li-	.	4ff/	4cc\	-i-	.
4G-X/	8BB-\	-um	.	4ee-/	4an\	-li-	.
.	8BB-\	o-	.	.	.	.	.
=37	=37	=37	=37	=37	=37	=37	=37
!	!	!	!	!	!	!	!LO:HP:a
4F/	1BB-	-sten-	.	4dd/	4b-\	-um	>
(<8G-X/L	.	.	.	8ee-/L	4an\	o-	.
8E-/J)	.	.	.	8cc/J	.	.	.
4D/	.	.	.	(>4ff/	2a-X\	-sten-	.
(<8F/L	.	.	.	8dd/L	.	.	.
8E-/J)	.	.	.	8cc/J	.	.	]]
=38	=38	=38	=38	=38	=38	=38	=38
!	!	!	!LO:DY:a	!	!	!	!
1D;>	1BB-	-de	pp	1b-)	1a-;>	-de	.
*	*	*	*	*v	*v	*	*
=39	=39	=39	=39	=39	=39	=39
*	*	*above	*	*	*	*
!	!	!	!LO:DY:a:rj	!LO:N:vis=2	!	!
2B-/	2B-\	Sal-	f	1r	.	.
4.c/	4.c\	-ve	.	.	.	.
8B-/	8B-\	Re-	.	.	.	.
=40	=40	=40	=40	=40	=40	=40
*	*	*	*	*^	*	*
!	!	!	!	!LO:N:vis=2	!LO:N:vis=2	!	!
4.G/	4.G\	-gi-	.	1ree	1ra	.	.
*	*	*below	*	*	*	*	*
8F/	8F\	.	.	.	.	.	.
8E-/L	8E-\L	.	.	.	.	.	.
8D/	8D\	.	.	.	.	.	.
8E-/	8E-\	.	.	.	.	.	.
8F/J	8F\J	.	.	.	.	.	.
=41	=41	=41	=41	=41	=41	=41	=41
*	*	*above	*	*	*	*	*
4E-/	4E-\	-na	.	4r	4ryy	.	.
*	*	*below	*	*	*	*	*
!	!	!	!	!LO:TX:a:i:t=dolce	!	!	!
4E-/	4C\	o	.	4ee-/	4g\	o	.
4E-/	4BB-\	cle-	.	4dd/	4g\	cle-	.
4E-/	4AA-\	-mens	.	8cc/	8a-\	-mens	.
.	.	.	.	8cc/	8a-\	o	.
!!LO:LB:g=original
=42	=42	=42	=42	=42	=42	=42	=42
8E-/	8E-\	Ma-	.	4b-/	4g\	pi-	.
4G/	4G\	.	.	.	.	.	.
.	.	.	.	4b-/	4g\	a	.
8F/	8F\	-ter	.	.	.	.	.
8E-/L	8E-\L	mi-	.	2ree	2ra	.	.
8G/J	8G\J	.	.	.	.	.	.
8A-/	8A-\	-se-	.	.	.	.	.
8B-/	8B-\	-re	.	.	.	.	.
=43	=43	=43	=43	=43	=43	=43	=43
4A-/	4A-\	cor-	.	4r	4ryy	.	.
!	!	!	!	!	!	!	!LO:DY:a:rj
4A-/	4E-\	-diae	.	4gg/	4cc\	O	p
4A-/	4D\	dul-	.	4ff/	4cc\	dul-	.
4A-/	4G\	-cis	.	4ee-/	4cc\	-cis	.
=44	=44	=44	=44	=44	=44	=44	=44
!	!	!	!	!	!	!	!LO:HP:a
4A-/	4F\	.	.	4ee-/	4b-\	Vir-	<
8A-/	8BB-\	.	.	8dd/	8b-\	-go	.
8A-/	8BB-\	.	.	8dd/	8b-\	Ma-	.
4A-/	4C\	.	.	4ee-/	4b-\	-ri-	.
8A-/	8D\	.	.	8ff/	8b-\	-a	.
8A-/	8D\	.	.	8ff/	8b-\	o	[[
=45	=45	=45	=45	=45	=45	=45	=45
4c/	4E-\	.	.	4aa-/	4ee-\	cle-	.
8B-/	8E-\	.	.	8gg/	8ee-\	-mens	.
8B-/	8E-\	.	.	8gg/	8ee-\	o	.
4B-/	4AA-\	.	.	4gg/	4cc\	pi-	.
8A-/	8AA-\	.	.	8gg/	8cc\	-a	.
8G/	8AAn\	.	.	8ee-/	8cc\	o	.
=46	=46	=46	=46	=46	=46	=46	=46
4F/	4BB-\	.	.	4ee-/	4b-\	dul-	.
4G-X/	4BB-\	.	.	4cc/	4an\	-cis	.
(>4F/	2BB-\	.	.	4ee-/	(<4a-X\	vir-	.
8Gn/L	.	.	.	4dd/	8b-\L	.	.
8F/J)	.	.	.	.	8a-\J)	.	.
!!LO:LB:g=original
=47	=47	=47	=47	=47	=47	=47	=47
4E-/	4C\	.	.	4ee-;>/	(>4g\	-go	.
*	*	*	*	*	*	*above	*
!	!	!	!	!	!	!	!LO:DY:a:rj
4r	4ryy	.	.	4ee-/	4re	Sal-	p
2r	2ryy	.	.	4dd/	2re	-ve	.
.	.	.	.	4g/)	.	Re-	.
=48	=48	=48	=48	=48	=48	=48	=48
!	!	!	!	!	!	!	!LO:DY:b
8.r	8.ryy	.	.	2b-/	8.r	-gi-	pp
16D/	16GG\	Ma-	.	.	16g\	.	.
2D/	2GG\	-ri-	.	.	2g\	.	.
.	.	.	.	4g/	.	-na	.
4D/	4BB-\	-a	.	4dd/	4g\	O	.
=49	=49	=49	=49	=49	=49	=49	=49
4r	4ryy	.	.	2cc/	4r	Sal-	.
!	!	!	!LO:HP:b=2	!	!	!	!
4F/	4FF\	Sal-	<	.	4a-\	.	.
4F/	4F\	-ve	.	4cc/	4a-\	-ve	.
8G/L	4E-\	Re-	.	4cc/	8g\L	Re-	.
8F/J	.	.	[	.	8f\J	.	.
=50	=50	=50	=50	=50	=50	=50	=50
4c/	2D\	-gi-	.	2ff/	(>4a-\	-gi-	.
4Bn/	.	.	.	.	4g\)	.	.
4c/	4C\	-na	.	4ee-/	4g\	-na	.
4B-X/	4GG\	Ma-	.	4dd/	4g\	Ma-	.
=51	=51	=51	=51	=51	=51	=51	=51
!	!	!	!	!	!	!	!LO:HP:b
2.G/	4C\	-ri-	.	1ee-	4g\	-ri-	<
.	8D-X\L	.	.	.	8b-\L	.	.
.	8BB-\J	.	.	.	8dd-X\J	.	.
.	2AA-\	.	.	.	4cc\	.	.
8F/L	.	.	.	.	4cc-X\	.	.
8E-/J	.	.	.	.	.	.	[[
=52	=52	=52	=52	=52	=52	=52	=52
!	!	!	!	!	!	!	!LO:HP:b
1G 1E-;<	1EE-	-a	.	1ee-;>	1b-	-a	>]
*v	*v	*	*	*	*	*	*
*	*	*	*v	*v	*	*
==	==	==	==	==	==
*-	*-	*-	*-	*-	*-
!!!system-decoration: {(s1,s2)}
!!!RDF**kern: > = above
!!!RDF**kern: < = below
!!!ENC: Marta Opryszak
!!!END: 2022-03-23
!!!EED: Antoni Szymański
!!!EEV: 2022-03-27
